!!!OTL: Der Gaertner.
!!!OTL-incipit: IM SCHATTEN SASS DER GAERTNER
!!!ARE: Europa, Mitteleuropa, Deutschland, Niederrhein
!!!SCT: Z1098
!!!TXL: @@DE
!!!YEM: Copyright 1995, estate of Helmut Schaffrath.
**kern	**text
*ICvox	*
*M4/4	*
*met(c)	*
*k[b-]	*
*F:	*
!LO:TX:a:t=Vom Niederrhein.	!
{4c	Jm
=1	=1
4.f	Schat-
8f	-ten
8fL	ſaß
8gJ	.
8aL	der
8b-J	.
=2	=2
2a	Gärt-
4g}	-ner,
{4g	er
=3	=3
4.g	ſang
8g	ein
8gL	trau-
8aJ	.
8b-/	-ri-
8cc/	-ges
=4	=4
(4a	Lied,
4c	.
4f)}	.
{8aL	er
8b-J	.
=5	=5
4.cc/	that
8cc/	in
8cc/L	ſei-
8b-J	.
8dd/L	-nem
8ccJ	.
=6	=6
2cc/	Gar-
4b-/}	-ten
{8gL	die
8aJ	.
=7	=7
4.b-/	Blu-
8g	-men
8b-/L	flei-
8gJ	.
8cc/L	-ßig
8b-J	.
=8	=8
2b-/	war-
4a}	-ten,
{8cc/L	die
8b-J	.
=9	=9
4a	Blu-
4a	-men
4g	roth
4g	und
=10	=10
(8fL	weiß
8c	.
8f	.
8gJ	.
4a)}	.
{8cc/L	die
8b-J	.
=11	=11
4a	Blu-
4a	-men
4g	roth
4g	und
=12	=12
2f	weiß.
4r}	.
==	==
!!!AGN: Romanze, Ballade, Tod
!!!ONB: ESAC (Essen Associative Code) Database: ZUCCAL
!!!AMT: simple quadruple
!!!AIN: vox
!!!EED: Helmut Schaffrath
!!!EEV: 1.0
!!!GTL: II. Gau- Leuschen.
!!!URL-scan: https://www.digitale-sammlungen.de/de/view/bsb11160573?page=211
!!!ENC: Anna Maria Matuszewska
!!!EEV: 2025/02/04
*-	*-
